style-guide/assets/wds-icons-bullet-list-small.svg

<svg xmlns="http://www.w3.org/2000/svg" xmlns:xlink="http://www.w3.org/1999/xlink" width="18" height="18" viewBox="0 0 18 18">
  <defs>
    <path id="bulleted-list-a" d="M16,14 C16.553,14 17,14.447 17,15 C17,15.553 16.553,16 16,16 L6,16 C5.447,16 5,15.553 5,15 C5,14.447 5.447,14 6,14 L16,14 Z M16,8 C16.553,8 17,8.447 17,9 C17,9.553 16.553,10 16,10 L6,10 C5.447,10 5,9.553 5,9 C5,8.447 5.447,8 6,8 L16,8 Z M6,4 C5.447,4 5,3.553 5,3 C5,2.447 5.447,2 6,2 L16,2 C16.553,2 17,2.447 17,3 C17,3.553 16.553,4 16,4 L6,4 Z M2.3799,14.0801 C2.4999,14.1301 2.6089,14.1991 2.7099,14.2901 C2.8899,14.4801 2.9999,14.7401 2.9999,15.0001 C2.9999,15.2601 2.8899,15.5191 2.7099,15.7101 C2.6089,15.8001 2.4999,15.8691 2.3799,15.9201 C2.2599,15.9701 2.1299,16.0001 1.9999,16.0001 C1.7399,16.0001 1.4799,15.8901 1.2899,15.7101 C1.1089,15.5191 0.9999,15.2601 0.9999,15.0001 C0.9999,14.7401 1.1089,14.4801 1.2899,14.2901 C1.5689,14.0101 2.0099,13.9201 2.3799,14.0801 Z M2.3799,8.0801 C2.4999,8.1301 2.6089,8.1991 2.7099,8.2901 C2.8899,8.4801 2.9999,8.7401 2.9999,9.0001 C2.9999,9.0701 2.9899,9.1301 2.9799,9.1991 C2.9699,9.2601 2.9499,9.3201 2.9199,9.3801 C2.8999,9.4391 2.8699,9.5001 2.8299,9.5501 C2.7899,9.6091 2.7499,9.6601 2.7099,9.7101 C2.6089,9.8001 2.4999,9.8691 2.3799,9.9201 C2.2599,9.9701 2.1299,10.0001 1.9999,10.0001 C1.7399,10.0001 1.4799,9.8901 1.2899,9.7101 C1.2499,9.6601 1.1999,9.6091 1.1699,9.5501 C1.1299,9.5001 1.0999,9.4391 1.0799,9.3801 C1.0499,9.3201 1.0299,9.2601 1.0199,9.1991 C1.0099,9.1301 0.9999,9.0701 0.9999,9.0001 C0.9999,8.7401 1.1089,8.4801 1.2899,8.2901 C1.5689,8.0101 2.0099,7.9201 2.3799,8.0801 Z M2.3799,2.0801 C2.4999,2.1301 2.6089,2.1991 2.7099,2.2901 C2.8899,2.4801 2.9999,2.7401 2.9999,3.0001 C2.9999,3.2601 2.8899,3.5191 2.7099,3.7101 C2.6089,3.8001 2.4999,3.8691 2.3799,3.9201 C2.2599,3.9701 2.1299,4.0001 1.9999,4.0001 C1.7399,4.0001 1.4799,3.8901 1.2899,3.7101 C1.1089,3.5191 0.9999,3.2601 0.9999,3.0001 C0.9999,2.7401 1.1089,2.4801 1.2899,2.2901 C1.5689,2.0101 2.0199,1.9201 2.3799,2.0801 Z"/>
  </defs>
  <use fill-rule="evenodd" xlink:href="#bulleted-list-a"/>
</svg>

<svg viewBox="0 0 18 18" xmlns="http://www.w3.org/2000/svg">
  <path d="M16 14a1 1 0 1 1 0 2H6a1 1 0 1 1 0-2h10zm0-6a1 1 0 1 1 0 2H6a1 1 0 1 1 0-2h10zM6 4a1 1 0 1 1 0-2h10a1 1 0 1 1 0 2H6zM2.38 14.08c.12.05.229.12.33.21.18.19.29.45.29.71 0 .26-.11.52-.29.71-.101.09-.21.16-.33.21-.12.05-.25.08-.38.08-.26 0-.52-.11-.71-.29A1.049 1.049 0 0 1 1 15c0-.26.109-.52.29-.71a.998.998 0 0 1 1.09-.21zm0-6c.12.05.229.12.33.21.18.19.29.45.29.71 0 .07-.01.13-.02.2a.631.631 0 0 1-.06.18.568.568 0 0 1-.09.17c-.04.06-.08.11-.12.16-.101.09-.21.16-.33.21-.12.05-.25.08-.38.08-.26 0-.52-.11-.71-.29-.04-.05-.09-.1-.12-.16a.568.568 0 0 1-.09-.17.631.631 0 0 1-.06-.18C1.01 9.13 1 9.07 1 9c0-.26.109-.52.29-.71a.998.998 0 0 1 1.09-.21zm0-6c.12.05.229.12.33.21.18.19.29.45.29.71 0 .26-.11.52-.29.71-.101.09-.21.16-.33.21-.12.05-.25.08-.38.08-.26 0-.52-.11-.71-.29A1.049 1.049 0 0 1 1 3c0-.26.109-.52.29-.71.279-.28.73-.37 1.09-.21z" fill-rule="evenodd"/>
</svg>
